X:369
T:Red Haired Boy
C:Traditional - Bluegrass version
N:Tabeldited by Simon Shartel 
R:bluegrass
L:1/8
Q:1/4=220
M:4/4
K:A
z8 | "A"EF AB A2 cd | ef ec "D"d2 cd | "A"e2 A2 A2 dc | "G"BA =GF G2 GF | "A"EF AB AB cd | 
ea ec "D"dA cd | "A"ef ab af ed | "E"cB A2 "A"A2 F2 | "A"EF AB A2 cd | ef ec "D"d2 cd | 
"A"e2 A2 A2 dc | "G"BA =GF G2 GF | "A"EF AB AB cd | ea ec "D"dA cd | "A"ef ab af ed | 
"E"cB A2 "A"A2 ef |: "G"=ga gf e2 ag | "D"fd ec d2 cd | "A"e2 A2 cd c2 | "G"BA =GF G2 GF | 
"A"EF AB AB cd | ef ec "D"d2 cd | "A"ef ab af ed |1 c2 A2 "A"A2 ef :|2 c2 A2 "A"A4 | 


